!!!OTL: Qunian zhenyuejian
!!!ARE: Asia, China,ÿHubei Xunxian
!! I, 382
!!!SCT: C2140
!!!YEM: Copyright 1995, estate of Helmut Schaffrath.
**kern
*ICvox
*Ivox
*M2/4
*k[f#c#]
*D:
{8.b
16b
8ee
8ee
=1
16b
16cc#
8b
4a
=2
8ee
8ee
8ee
8a
=3
8b
8f#
4e}
=4
{8.ee
16ee
8ee
8ee
=5
8b
16cc#
16b
4a
=6
16b
16cc#
16b
16a
16b
16cc#
16b
16a
=7
8b
8f#
4e}
=8
{8e
8e
8a
8a
=9
16e
16e
16e
16e
8a
8a
=10
8ee
8ee
8b
8a
=11
8e
8e
8.a
16b
=12
8f#
16e
16d
4e}
=13
{8ee
8ee
8b
8a
=14
8e
8e
8.a
16b
=15
8ff#
16ee
16dd
8ee
8r}
==
!!!AGN: Xiaodiao
!!!ONB: ESAC (Essen Associative Code) Database: SENGANSU
!!!AMT: simple duple
!!!AIN: vox
!!!EED: Helmut Schaffrath
!!!EEV: 1.0
*-
